src/assets/icons/letters,simple,serif-x.svg

<svg width="48" height="48" viewBox="0 0 48 48" fill="none" xmlns="http://www.w3.org/2000/svg">
<rect opacity="0.2" x="5" y="5" width="38" height="38" rx="4" fill="black"/>
<path d="M33.0652 32.67C33.5652 33.35 34.1452 33.88 34.8052 34.26C35.4852 34.62 36.2352 34.8 37.0552 34.8V36H25.8652V34.8C26.3652 34.8 26.7652 34.78 27.0652 34.74C27.3852 34.7 27.6252 34.65 27.7852 34.59C27.9652 34.53 28.0752 34.45 28.1152 34.35C28.1752 34.25 28.2052 34.14 28.2052 34.02C28.2052 33.9 28.1752 33.78 28.1152 33.66C28.0752 33.52 27.9952 33.35 27.8752 33.15C27.7552 32.95 27.5952 32.7 27.3952 32.4C27.1952 32.1 26.9352 31.73 26.6152 31.29L23.4052 26.73L21.3352 29.28C20.8952 29.82 20.4652 30.32 20.0452 30.78C19.6452 31.24 19.2752 31.67 18.9352 32.07C18.6152 32.47 18.3552 32.83 18.1552 33.15C17.9552 33.45 17.8552 33.72 17.8552 33.96C17.8552 34.28 18.0552 34.5 18.4552 34.62C18.8552 34.74 19.5152 34.8 20.4352 34.8V36H11.2252V34.8C11.7652 34.8 12.2252 34.78 12.6052 34.74C13.0052 34.68 13.3552 34.58 13.6552 34.44C13.9752 34.3 14.2652 34.11 14.5252 33.87C14.8052 33.61 15.1152 33.28 15.4552 32.88L22.0252 24.87L15.0352 15.81C14.4952 15.11 13.9552 14.65 13.4152 14.43C12.8752 14.21 12.2652 14.1 11.5852 14.1V12.9H22.8652V14.1C22.1452 14.1 21.6252 14.19 21.3052 14.37C20.9852 14.55 20.8252 14.82 20.8252 15.18C20.8252 15.72 21.1252 16.39 21.7252 17.19L24.8152 21.45L28.6852 16.83C28.9852 16.47 29.1952 16.15 29.3152 15.87C29.4552 15.57 29.5252 15.29 29.5252 15.03C29.5252 14.89 29.4952 14.76 29.4352 14.64C29.3752 14.52 29.2552 14.42 29.0752 14.34C28.9152 14.26 28.6752 14.2 28.3552 14.16C28.0352 14.12 27.6152 14.1 27.0952 14.1V12.9H36.0352V14.1C35.1952 14.1 34.5452 14.16 34.0852 14.28C33.6252 14.4 33.2452 14.64 32.9452 15L26.2552 23.28L33.0652 32.67Z" fill="black"/>
</svg>

<svg xmlns="http://www.w3.org/2000/svg" width="48" height="48" fill="none" viewBox="0 0 48 48">
  <rect width="38" height="38" x="5" y="5" fill="#000" opacity=".2" rx="4"/>
  <path fill="#000" d="M33.065 32.67c.5.68 1.08 1.21 1.74 1.59.68.36 1.43.54 2.25.54V36h-11.19v-1.2c.5 0 .9-.02 1.2-.06.32-.04.56-.09.72-.15.18-.06.29-.14.33-.24.06-.1.09-.21.09-.33 0-.12-.03-.24-.09-.36-.04-.14-.12-.31-.24-.51s-.28-.45-.48-.75c-.2-.3-.46-.67-.78-1.11l-3.21-4.56-2.07 2.55c-.44.54-.87 1.04-1.29 1.5-.4.46-.77.89-1.11 1.29-.32.4-.58.76-.78 1.08-.2.3-.3.57-.3.81 0 .32.2.54.6.66.4.12 1.06.18 1.98.18V36h-9.21v-1.2c.54 0 1-.02 1.38-.06.4-.06.75-.16 1.05-.3.32-.14.61-.33.87-.57.28-.26.59-.59.93-.99l6.57-8.01-6.99-9.06c-.54-.7-1.08-1.16-1.62-1.38-.54-.22-1.15-.33-1.83-.33v-1.2h11.28v1.2c-.72 0-1.24.09-1.56.27-.32.18-.48.45-.48.81 0 .54.3 1.21.9 2.01l3.09 4.26 3.87-4.62c.3-.36.51-.68.63-.96.14-.3.21-.58.21-.84a.86.86 0 00-.09-.39c-.06-.12-.18-.22-.36-.3-.16-.08-.4-.14-.72-.18-.32-.04-.74-.06-1.26-.06v-1.2h8.94v1.2c-.84 0-1.49.06-1.95.18-.46.12-.84.36-1.14.72l-6.69 8.28 6.81 9.39z"/>
</svg>
